X:1
T: the Lament for the Union of Scotland and England
Z:Jack Campin
B:David Glen: Edinburgh Collection part 3
N:source lines halved for emailing
M:C
L:1/8
Q:1/4=40 % guess
K:Hp
    {g(e4}A>){GdG}BMa>g     {a}e2        {g}e<A |\
    {g(e4}G>){d}B{a}g>e   {GeA}e2     {g(e4}d>)G|\
         Me>BMd>f           {g}e2        {g}e<A |\
       {g}G>{d}B{e}A<{GdG}B {g}e>G       {d}G2  |
[1        e<{AfAg}ae>g      {a}d>e       {g}B<d |\
    {g(e4}A>){GdG}BMa>g     {a}e2        {g}e<A |\
    {g(e4}G>){d}BMg>e     {GdA}e2     {g(e4}d2) |\
          B<{GdG}BMe>d {g(e2d2}A>){G}A   {G}A2 :|
[2 {eAfAg}ag/{a}e/ ge/{g}d/    ed/{g}B/     d>B |\
    {g(e4}A>){GdG}BMa>g     {a}e2        {g}e<A |\
    {g(e4}G>){d}B{a}g>e   {GdA}e2     {g(e4}d2) |\
          B{GdG}BMe>d  {g(e2d2}A>){G}A   {G}A2 |]
